X: 76
T:Green Island Home
R:reel
C:Ed Reavy
M:2/2
L:1/8
Z:Joe Reavy
N:Many a green island rests along the rim of the far oceans; 
N:but for those Irishmen that cherish the memory of their own 
N:dear land, there is only one Green Island Home.
K:D
AB|=cBcA G2 fg|Addc AddB|=cBcA GBAG|FD=CG, A,DDB|
=cBcA G2 FG|AB=cA d^cde|f2 df edce|1dcAG FDDB:|
2dcAG FDDe||fgaf dcdf|e=ccB cdeg|fgaf d^cdB|
^cAGF Addf|abaf gage|fedc defg|(3agf (3gfe fded|
1cAGE D2 de:|2cAGE D2||
